X: 3
T:Lads a Bunchum
C:Adderbury
M:2/2
L:1/8
A:Adderbury
P:A(AB)6
K:F
P:A
|:z2A3B  ABcd|B2G2 G2AB|c2c2 cBAG|F2F2 F2:|
P:B
fe|d2c2 c2FG|A2A2 A2fe|d2c2 B2A2|G2F2 F2fe|
d2c2 c2FG|A2A2 A2fe|d2c2 A2F2|G2F2 F2||
W:
W:Oh dear mother, what a fool I be!
W:Here are six young fellows come a-courting me.
W:Three are blind and the others can't see.
W:Oh dear mother, what a fool I be!
</abc>



